X:1
T:The Three Fishers
T:Voice and Piano
T:Rev. C. Kingsley
T:S. D. S. & J. Hullah
T:by Mutopia-2014/11/13-429
T:by Mutopia-2014/11/13-429
T:by Mutopia-2014/11/13-429
T:by Mutopia-2014/11/13-429
C:by J. Hullah (1812–1884)
Z:by Mutopia-2014/11/13-429
%%score 1 { 2 ( 3 4 ) }
L:1/8
Q:1/4=60
M:6/8
K:C
V:1 treble nm="Voice"
V:2 treble nm="Piano"
V:3 bass nm="Piano"
V:4 bass 
V:1
"^Andantino" z6 | z6 | z6 | z6 | z6 | z6 | z6 | z6 | z3 z2 c | c E A G C F | E E D C2 C | %11
w: ||||||||Three|fish\- ers went sail\- ing out|in\- to the west, Out|
!<(! D E F G A B!<)! |!>(! c2 c B2!>)! B | d d d c c c | B B B !fermata!f F F | %15
w: in\-\- to the west as the|sun went down; Each|thought on the wo\- man who|lov'd him the best, And the|
 F E D"^un poco rall." E C A, | B, B, B, !fermata!E2"^a tempo." E | E2 E E2 E | F E F D3/2 D/ D | %19
w: child\- ren stood watch\- ing them|out of the town For|men must work and|wo\- men must weep And there's|
 E/ E3/2 E E2 E | F/ E3/2 F D G3/2 G/ |"^cresc." G2 G G2 G |!f! c3- c3 | !>!G3- !>!G3 | E2 z z2 z | %25
w: lit\- tle to earn, and|man y to keep; Tho the|har\- bor bar be|moan _|_ _|ing.|
 z3 z2 c | (c E) A G C F | E2 D C2 C/ C/ |!<(! D E F G A B!<)! |!>(! c2 c B2!>)! B | d d d c c c | %31
w: Three|wives * sat up in the|light house tow'r And they|trimm'd * the lamps as the|sun went down They|look'd at the squall, and they|
 B B B !fermata!f F F | F E D E C A, | B,/ B,3/2 B, !fermata!E2"^a tempo." E | E2 E E2 E | %35
w: look'd at the show'r, And the|night\-- rack came roll\- ing up|rag\- ged and brown! But|men must work and|
 F E F D2"^cresc." D | E2 E E/ E3/2 E | F E F D G3/2 G/ |"^cresc." G2 G G2 G |!f! c3- c3 | %40
w: wo\- men must weep Though|storms be sud\- den, and|wa\- * ters deep, And the|har\- bor bar be|moan _|
 !>!G3- !>!G3 | E2 z z2 z | z3 z2 c | (c E) A G C F | E2 D C2 C/ C/ | (D E) F G A B | %46
w: _ _|ing.|Three|corp\- ses lay out on the|shin\- ing sands, In the|morn\- * ing gleam as the|
 c2 c B2 B/ B/ |"^accel." d d d c c c | B B B !fermata!f2 F | F E D E/ C3/2 A, | %50
w: tide went down, And the|wo\- men are weep\- ing and|wring\- ing their hands For|those who will nev\- er come|
 B,3/2 B,/ B, !fermata!E2 E |"^a tempo." E2 E E2 E | F E F D2 D/ D/ | E/ E3/2 E E E E | %54
w: back to the town, For|men must work, and|wo\- men must weep, And the|soon\- er it's o\- ver, the|
 F E F D G G |"^cresc." G3/2 G/ G G G G |!f! c3- c3 | !>!G3- !>!G3 | E2 z z2 z | z6 | z6 | z6 | %62
w: soon\- er to sleep, And good\-|bye to the bar and its|moan _|_ _|ing.||||
 z6 |] %63
w: |
V:2
!p! [G,CE]2 [G,CE] [A,CE]2 [A,CE] | [A,DF][A,CE][A,DF] [G,B,D]2 z | %2
!pp! [G,CE] z [G,CE] [A,CE]2 [A,CE] | [A,DF][A,CE][A,DF]!f! [G,B,D] [Gg]>[Gg] | %4
 [Gcg]2 [Gcg] [Gcg]2 [Gcg] |!f! [cgc']3 [cgc']3 |!f! [Gcdg]3 [GBdg]3 | %7
 [Gce]!pp! z [CE] [CE]2 [CE] | [CE] z [CE] [CE] z [CE] | [CE] z [C^D] [CE] z [A,CF] | %10
 [G,CE] z [G,B,F] [G,CE] z [G,CE] | [G,B,D] z [B,D] [CG] z [CG] | %12
!mf! [CG]!>(! z [C^F] [B,G]!>)! z [DGB] | [DAd] z [DAd] [EAc] z [EAc] | %14
 [FAB] z [FAB] !fermata![FAf] z z | FED ECA, | B, z [A,B,^D] !fermata![^G,B,E] z z | %17
!pp! [=G,CE] z [G,CE] [A,CE] z [A,CE] | [A,DF][A,CE][A,DF] [G,B,D] z [G,B,D] | %19
 [G,CE] z [G,CE] [A,CE] z [A,CE] | [A,DF][A,CE][A,DF] [G,B,D][G,G][G,G] | %21
"_cresc." [CG] z [CG] [B,CG] z [B,CG] |!f! [A,CG] z [A,CG] [A,CF] z [A,CF] | %23
 [G,CD] z"_dim." [G,CD] [B,D][CE][DF] | [CE] z!pp! [CE] [CE] z [CE] | [CE] z [CE] [CE]2 [CE] | %26
 [CE] z [C^D] [CE] z [A,CF] | [G,CE] z [G,B,F] [G,CE] z [G,CE] | %28
!<(! [G,B,D] z [B,D] [CG] z [CG]!<)! |!>(! [CG] z [C^F]!>)! [B,G] z [DGB] | %30
!mf! [DAd] z [DAd] [EAc] z [EAc] | [FAB] z [FAB] !fermata![FAf] z z |!mf! FED ECA, | %33
 B,!f! z [A,B,^D] !fermata![^G,B,E]2 z |!pp! [=G,CE] z [G,CE] [A,CE] z [A,CE] | %35
 [A,DF][A,CE][A,DF] [G,B,D] z"_cresc." [G,B,D] | [G,CE] z [G,CE] [A,CE] z [A,CE] | %37
 [A,DF][A,CE][A,DF] [G,B,D] [G,G][G,G] |"_cresc." [CG] z [CG] [B,CG] z [B,CG] | %39
 [A,CG] z [A,CG] [A,CF] z [A,CF] | [G,CD]"_dim." z [G,CD] [B,D][CE][DF] | %41
!pp! [CE] z [CE] [CE] z [CE] | [CE] z [CE] [CE] z"^un poco meno mosso" [CE] | %43
 [CE] z [C^D] [CE] z [A,CF] | [G,CE] z [G,B,F] [G,CE] z [G,CE] | [G,B,D] z [B,D] [CG] z [CG] | %46
 [CG] z [C^F] [B,G] z [DGB] |!f! [DAd] z [DAd] [EAc] z [EAc] | [FAB] z [FAB] !fermata![FAf]2 z | %49
!p! FED ECA, | B,!f! z [A,B,^D] !fermata![^G,B,E]2 z |!pp! [=G,CE] z [G,CE] [A,CE] z [A,CE] | %52
 [A,DF][A,CE][A,DF] [G,B,D] z [G,B,D] | [G,CE] z [G,CE] [A,CE] z [A,CE] | %54
 [A,CF][G,CE][A,CF] [G,B,D] [G,G][G,G] |"_cresc." [CG] z [CG] [B,CG] z [B,CG] | %56
 [A,CG] z [A,CG] [A,CF] z [A,CF] | [G,CD] z"_dim." [G,CD] [B,D][CE][DF] | %58
!p! [CE] z [CE] [CE] z [CE] | [A,CF][G,CE][A,CF] [G,CE]!pp! z [G,CE] | %60
 [A,CF][G,CE][A,CF] [G,CE] z [G,CE] | [G,CE] z z [G,CE] z z | [G,CE]3- [G,CE]3 |] %63
V:3
 C, z C, A,,2 A,, | D,A,,D, G,,2 z | C, z C, A,,2 A,, | F,,C,F,, G,, z z | %4
 [CE]2 [CE] [B,CE]2 [B,CE] | [A,C]3 [A,C]3 | [G,D]3 DEF | [CE] z [C,G,] [C,G,]2 [C,G,] | %8
 [C,G,] z [C,G,] [C,G,] z [C,G,] | [C,G,] z [C,^F,] [C,G,] z F,, | G,, z G,, C, z C, | %11
 F, z [F,G,] [E,G,] z E, | [A,,E,] z [A,,D,] [G,,D,] z G, | [F,A,] z [F,A,] [E,A,] z [E,A,] | %14
 [D,A,] z [D,A,] !fermata![D,A,B,] z z |!p! F,E,D, E,C,A,, | B,, z [B,,,B,,] !fermata![E,,E,]2 z | %17
 C, z C, A,, z A,, | D,A,,D, G,, z G,, | C, z C, A,, z A,, | F,,C,F,, G,, z z | %21
 [E,,C,] z [E,,C,] [E,,C,] z [E,,C,] | [F,,C,] z [F,,C,] [F,,D,]2 [F,,D,] | %23
 [G,,D,] z [G,,D,] [G,,G,] z [G,,G,] | [C,G,] z [C,G,] [C,G,] z [C,G,] | %25
 [C,G,]2 [C,G,] [C,G,]2 [C,G,] | [C,G,] z [C,^F,] [C,G,] z F,, | G,, z G,, C, z C, | %28
 F, z [F,G,] [E,G,] z E, | [A,,E,] z [A,,D,] [G,,D,] z G, | [F,A,] z [F,A,] [E,A,] z [E,A,] | %31
 [D,A,] z [D,A,] !fermata![D,A,B,] z z | F,E,D, E,C,A,, | B,,2 [B,,,B,,] !fermata![E,,E,]2 z | %34
 C, z C, A,, z A,, | D,A,,D, G,, z G,, | C, z C, A,, z A,, | F,,C,F,, G,, z z | %38
 [E,,C,] z [E,,C,] [E,,C,] z [E,,C,] | [F,,C,]2 [F,,C,] [F,,D,] z [F,,D,] | %40
 [G,,D,] z [G,,D,] [G,,G,] z [G,,G,] | [C,G,] z [C,G,] [C,G,] z [C,G,] | %42
 [C,G,] z [C,G,] [C,G,] z [C,G,] | [C,G,]2 [C,^F,] [C,G,] z F,, | G,, z G,, C, z C, | %45
 F, z [F,G,] [E,G,] z E, | [A,,E,] z [A,,D,] [G,,D,] z G, | [F,A,] z [F,A,] [E,A,] z [E,A,] | %48
 [D,A,] z [D,A,] !fermata![D,A,B,]2 z | F,E,D, E,C,A,, | B,, z [B,,,B,,] !fermata![E,,E,]2 z | %51
 C, z C, A,, z A,, | D,A,,D, G,, z G,, | C, z C, A,, z A,, | F,,C,F,, G,, z z | %55
 [E,,C,] z [E,,C,] [E,,C,] z [E,,C,] | [F,,C,] z [F,,C,] [G,,D,] z [G,,D,] | %57
 [G,,D,] z [G,,D,] [G,,G,] z [G,,G,] | [C,G,] z [C,G,] [C,G,] z [C,G,] | F,C,F, C, z C, | %60
 F,C,F, C, z C, | C, z z C, z z | C,3- C,3 |] %63
V:4
 x6 | x6 | x6 | x6 | x6 | x6 | z3 G,3 | x6 | x6 | x6 | x6 | x6 | x6 | x6 | x6 | x6 | x6 | x6 | x6 | %19
 x6 | x6 | x6 | x6 | x6 | x6 | x6 | x6 | x6 | x6 | x6 | x6 | x6 | x6 | x6 | x6 | x6 | x6 | x6 | %38
 x6 | x6 | x6 | x6 | x6 | x6 | x6 | x6 | x6 | x6 | x6 | x6 | x6 | x6 | x6 | x6 | x6 | x6 | x6 | %57
 x6 | x6 | x6 | x6 | x6 | x6 |] %63

